static/img/kroki/856346c53d215f3169026d9303405729.svg

<?xml version="1.0" encoding="us-ascii" standalone="no"?><svg xmlns="http://www.w3.org/2000/svg" xmlns:xlink="http://www.w3.org/1999/xlink" contentStyleType="text/css" height="1030px" preserveAspectRatio="none" style="width:408px;height:1030px;" version="1.1" viewBox="0 0 408 1030" width="408px" zoomAndPan="magnify"><defs/><g><!--class azure_authorization_role_assignment--><g id="elem_azure_authorization_role_assignment"><rect codeLine="23" fill="#3D176E" height="363.3516" id="azure_authorization_role_assignment" rx="2.5" ry="2.5" style="stroke:#000D19;stroke-width:0.5;" width="394" x="7" y="660.14"/><ellipse cx="39.1" cy="680.0345" fill="#ADD1B2" rx="11" ry="11" style="stroke:#181818;stroke-width:1.0;"/><path d="M42.0688,685.6752 Q41.4906,685.972 40.85,686.1127 Q40.2094,686.2689 39.5063,686.2689 Q37.0063,686.2689 35.6781,684.6283 Q34.3656,682.972 34.3656,679.847 Q34.3656,676.722 35.6781,675.0658 Q37.0063,673.4095 39.5063,673.4095 Q40.2094,673.4095 40.85,673.5658 Q41.5063,673.722 42.0688,674.0189 L42.0688,676.7377 Q41.4438,676.1595 40.85,675.8939 Q40.2563,675.6127 39.6313,675.6127 Q38.2875,675.6127 37.6,676.6908 Q36.9125,677.7533 36.9125,679.847 Q36.9125,681.9408 37.6,683.0189 Q38.2875,684.0814 39.6313,684.0814 Q40.2563,684.0814 40.85,683.8158 Q41.4438,683.5345 42.0688,682.9564 L42.0688,685.6752 Z " fill="#000000"/><text fill="#D9B8FF" font-family="Helvetica" font-size="17" lengthAdjust="spacing" textLength="314" x="61.9" y="685.9198">azure_authorization_role_assignment</text><line style="stroke:#000D19;stroke-width:0.5;" x1="8" x2="400" y1="699.9291" y2="699.9291"/><text fill="#D9B8FF" font-family="sans-serif" font-size="14" font-weight="bold" lengthAdjust="spacing" textLength="73" x="18" y="721.9242">condition</text><text fill="#D9B8FF" font-family="sans-serif" font-size="14" lengthAdjust="spacing" textLength="48" x="91" y="721.9242">: string</text><text fill="#D9B8FF" font-family="sans-serif" font-size="14" font-weight="bold" lengthAdjust="spacing" textLength="139" x="18" y="748.2211">condition_version</text><text fill="#D9B8FF" font-family="sans-serif" font-size="14" lengthAdjust="spacing" textLength="48" x="157" y="748.2211">: string</text><text fill="#D9B8FF" font-family="sans-serif" font-size="14" font-weight="bold" lengthAdjust="spacing" textLength="87" x="18" y="774.5179">created_by</text><text fill="#D9B8FF" font-family="sans-serif" font-size="14" lengthAdjust="spacing" textLength="48" x="105" y="774.5179">: string</text><text fill="#D9B8FF" font-family="sans-serif" font-size="14" font-weight="bold" lengthAdjust="spacing" textLength="88" x="18" y="800.8148">created_on</text><text fill="#D9B8FF" font-family="sans-serif" font-size="14" lengthAdjust="spacing" textLength="70" x="106" y="800.8148">: datetime</text><text fill="#D9B8FF" font-family="sans-serif" font-size="14" font-weight="bold" lengthAdjust="spacing" textLength="324" x="18" y="827.1117">delegated_managed_identity_resource_id</text><text fill="#D9B8FF" font-family="sans-serif" font-size="14" lengthAdjust="spacing" textLength="48" x="342" y="827.1117">: string</text><text fill="#D9B8FF" font-family="sans-serif" font-size="14" font-weight="bold" lengthAdjust="spacing" textLength="89" x="18" y="853.4086">description</text><text fill="#D9B8FF" font-family="sans-serif" font-size="14" lengthAdjust="spacing" textLength="48" x="107" y="853.4086">: string</text><text fill="#D9B8FF" font-family="sans-serif" font-size="14" font-weight="bold" lengthAdjust="spacing" textLength="88" x="18" y="879.7054">principal_id</text><text fill="#D9B8FF" font-family="sans-serif" font-size="14" lengthAdjust="spacing" textLength="48" x="106" y="879.7054">: string</text><text fill="#D9B8FF" font-family="sans-serif" font-size="14" font-weight="bold" lengthAdjust="spacing" textLength="109" x="18" y="906.0023">principal_type</text><text fill="#D9B8FF" font-family="sans-serif" font-size="14" lengthAdjust="spacing" textLength="48" x="127" y="906.0023">: string</text><text fill="#D9B8FF" font-family="sans-serif" font-size="14" font-weight="bold" lengthAdjust="spacing" textLength="133" x="18" y="932.2992">role_definition_id</text><text fill="#D9B8FF" font-family="sans-serif" font-size="14" lengthAdjust="spacing" textLength="48" x="151" y="932.2992">: string</text><text fill="#D9B8FF" font-family="sans-serif" font-size="14" font-weight="bold" lengthAdjust="spacing" textLength="48" x="18" y="958.5961">scope</text><text fill="#D9B8FF" font-family="sans-serif" font-size="14" lengthAdjust="spacing" textLength="48" x="66" y="958.5961">: string</text><text fill="#D9B8FF" font-family="sans-serif" font-size="14" font-weight="bold" lengthAdjust="spacing" textLength="91" x="18" y="984.8929">updated_by</text><text fill="#D9B8FF" font-family="sans-serif" font-size="14" lengthAdjust="spacing" textLength="48" x="109" y="984.8929">: string</text><text fill="#D9B8FF" font-family="sans-serif" font-size="14" font-weight="bold" lengthAdjust="spacing" textLength="92" x="18" y="1011.1898">updated_on</text><text fill="#D9B8FF" font-family="sans-serif" font-size="14" lengthAdjust="spacing" textLength="70" x="110" y="1011.1898">: datetime</text></g><!--class microsoft_resource--><g id="elem_microsoft_resource"><rect codeLine="37" fill="#3D176E" height="100.3828" id="microsoft_resource" rx="2.5" ry="2.5" style="stroke:#000D19;stroke-width:0.5;" width="214" x="97" y="438.76"/><ellipse cx="118.3" cy="458.6545" fill="#ADD1B2" rx="11" ry="11" style="stroke:#181818;stroke-width:1.0;"/><path d="M121.2688,464.2952 Q120.6906,464.592 120.05,464.7327 Q119.4094,464.8889 118.7063,464.8889 Q116.2063,464.8889 114.8781,463.2483 Q113.5656,461.592 113.5656,458.467 Q113.5656,455.342 114.8781,453.6858 Q116.2063,452.0295 118.7063,452.0295 Q119.4094,452.0295 120.05,452.1858 Q120.7063,452.342 121.2688,452.6389 L121.2688,455.3577 Q120.6438,454.7795 120.05,454.5139 Q119.4563,454.2327 118.8313,454.2327 Q117.4875,454.2327 116.8,455.3108 Q116.1125,456.3733 116.1125,458.467 Q116.1125,460.5608 116.8,461.6389 Q117.4875,462.7014 118.8313,462.7014 Q119.4563,462.7014 120.05,462.4358 Q120.6438,462.1545 121.2688,461.5764 L121.2688,464.2952 Z " fill="#000000"/><text fill="#D9B8FF" font-family="Helvetica" font-size="17" lengthAdjust="spacing" textLength="158" x="138.7" y="464.5398">microsoft_resource</text><line style="stroke:#000D19;stroke-width:0.5;" x1="98" x2="310" y1="478.5491" y2="478.5491"/><text fill="#D9B8FF" font-family="sans-serif" font-size="14" font-weight="bold" lengthAdjust="spacing" textLength="35" x="108" y="500.5442">etag</text><text fill="#D9B8FF" font-family="sans-serif" font-size="14" lengthAdjust="spacing" textLength="48" x="143" y="500.5442">: string</text><text fill="#D9B8FF" font-family="sans-serif" font-size="14" font-weight="bold" lengthAdjust="spacing" textLength="144" x="108" y="526.8411">provisioning_state</text><text fill="#D9B8FF" font-family="sans-serif" font-size="14" lengthAdjust="spacing" textLength="48" x="252" y="526.8411">: string</text></g><!--class resource--><g id="elem_resource"><rect codeLine="41" fill="#3D176E" height="310.7578" id="resource" rx="2.5" ry="2.5" style="stroke:#000D19;stroke-width:0.5;" width="227" x="90.5" y="7"/><ellipse cx="159.25" cy="26.8945" fill="#ADD1B2" rx="11" ry="11" style="stroke:#181818;stroke-width:1.0;"/><path d="M162.2188,32.5352 Q161.6406,32.832 161,32.9727 Q160.3594,33.1289 159.6563,33.1289 Q157.1563,33.1289 155.8281,31.4883 Q154.5156,29.832 154.5156,26.707 Q154.5156,23.582 155.8281,21.9258 Q157.1563,20.2695 159.6563,20.2695 Q160.3594,20.2695 161,20.4258 Q161.6563,20.582 162.2188,20.8789 L162.2188,23.5977 Q161.5938,23.0195 161,22.7539 Q160.4063,22.4727 159.7813,22.4727 Q158.4375,22.4727 157.75,23.5508 Q157.0625,24.6133 157.0625,26.707 Q157.0625,28.8008 157.75,29.8789 Q158.4375,30.9414 159.7813,30.9414 Q160.4063,30.9414 161,30.6758 Q161.5938,30.3945 162.2188,29.8164 L162.2188,32.5352 Z " fill="#000000"/><text fill="#D9B8FF" font-family="Helvetica" font-size="17" lengthAdjust="spacing" textLength="71" x="184.75" y="32.7798">resource</text><line style="stroke:#000D19;stroke-width:0.5;" x1="91.5" x2="316.5" y1="46.7891" y2="46.7891"/><text fill="#D9B8FF" font-family="sans-serif" font-size="14" font-weight="bold" lengthAdjust="spacing" textLength="29" x="101.5" y="68.7842">age</text><text fill="#D9B8FF" font-family="sans-serif" font-size="14" lengthAdjust="spacing" textLength="66" x="130.5" y="68.7842">: duration</text><text fill="#D9B8FF" font-family="sans-serif" font-size="14" font-weight="bold" lengthAdjust="spacing" textLength="43" x="101.5" y="95.0811">atime</text><text fill="#D9B8FF" font-family="sans-serif" font-size="14" lengthAdjust="spacing" textLength="70" x="144.5" y="95.0811">: datetime</text><text fill="#D9B8FF" font-family="sans-serif" font-size="14" font-weight="bold" lengthAdjust="spacing" textLength="43" x="101.5" y="121.3779">ctime</text><text fill="#D9B8FF" font-family="sans-serif" font-size="14" lengthAdjust="spacing" textLength="70" x="144.5" y="121.3779">: datetime</text><text fill="#D9B8FF" font-family="sans-serif" font-size="14" font-weight="bold" lengthAdjust="spacing" textLength="14" x="101.5" y="147.6748">id</text><text fill="#D9B8FF" font-family="sans-serif" font-size="14" lengthAdjust="spacing" textLength="48" x="115.5" y="147.6748">: string</text><text fill="#D9B8FF" font-family="sans-serif" font-size="14" font-weight="bold" lengthAdjust="spacing" textLength="33" x="101.5" y="173.9717">kind</text><text fill="#D9B8FF" font-family="sans-serif" font-size="14" lengthAdjust="spacing" textLength="48" x="134.5" y="173.9717">: string</text><text fill="#D9B8FF" font-family="sans-serif" font-size="14" font-weight="bold" lengthAdjust="spacing" textLength="90" x="101.5" y="200.2686">last_access</text><text fill="#D9B8FF" font-family="sans-serif" font-size="14" lengthAdjust="spacing" textLength="66" x="191.5" y="200.2686">: duration</text><text fill="#D9B8FF" font-family="sans-serif" font-size="14" font-weight="bold" lengthAdjust="spacing" textLength="90" x="101.5" y="226.5654">last_update</text><text fill="#D9B8FF" font-family="sans-serif" font-size="14" lengthAdjust="spacing" textLength="66" x="191.5" y="226.5654">: duration</text><text fill="#D9B8FF" font-family="sans-serif" font-size="14" font-weight="bold" lengthAdjust="spacing" textLength="48" x="101.5" y="252.8623">mtime</text><text fill="#D9B8FF" font-family="sans-serif" font-size="14" lengthAdjust="spacing" textLength="70" x="149.5" y="252.8623">: datetime</text><text fill="#D9B8FF" font-family="sans-serif" font-size="14" font-weight="bold" lengthAdjust="spacing" textLength="43" x="101.5" y="279.1592">name</text><text fill="#D9B8FF" font-family="sans-serif" font-size="14" lengthAdjust="spacing" textLength="48" x="144.5" y="279.1592">: string</text><text fill="#D9B8FF" font-family="sans-serif" font-size="14" font-weight="bold" lengthAdjust="spacing" textLength="34" x="101.5" y="305.4561">tags</text><text fill="#D9B8FF" font-family="sans-serif" font-size="14" lengthAdjust="spacing" textLength="171" x="135.5" y="305.4561">: dictionary[string, string]</text></g><!--reverse link microsoft_resource to azure_authorization_role_assignment--><g id="link_microsoft_resource_azure_authorization_role_assignment"><path codeLine="53" d="M204,557.47 C204,589.49 204,615.34 204,659.67 " fill="none" id="microsoft_resource-backto-azure_authorization_role_assignment" style="stroke:#FFAF37;stroke-width:2.0;"/><polygon fill="none" points="204,539.47,198,557.47,210,557.47,204,539.47" style="stroke:#FFAF37;stroke-width:2.0;"/></g><!--reverse link resource to microsoft_resource--><g id="link_resource_microsoft_resource"><path codeLine="54" d="M204,336.06 C204,379.65 204,405.98 204,438.42 " fill="none" id="resource-backto-microsoft_resource" style="stroke:#FFAF37;stroke-width:2.0;"/><polygon fill="none" points="204,318.06,198,336.06,210,336.06,204,318.06" style="stroke:#FFAF37;stroke-width:2.0;"/></g><!--SRC=[ZLHDRvj04BtxLo3bPjMItQXrNFMIMghQIrGrlLKL6kyEU6Ls5yqEZd3R_zu1x0GMalG4lFVcupqMzaPZWhRaEh5eTqXX5Wx6bK1WariY_x3rXQVaAiiWkrx7v6Vl-5N17LXClc1nH3OAOiMFlL47Xo4aRtlK9r27d7pbTDUU2LmG2XttLDi2GhXb9hEh67lBwCtk9ijYPTpqwbglrkzn9FEaaSwIvNAfLvjOykge5tq_AkxD2PDLFxGxppXQSpIYLRsuPQFeBJaoUk6VtV4RQ6rSdhphOT-xdSWX3V3xFMZ_qAWpA49_J60az5oNk1svmisDpjQJug_FYMUgYIw1KqMOGiLxJ-O4RBnBoHS2XM1oP-MK9BzdyxdoJfk6dSy_I7kI5VjeUfJpFc89WL6dkteIxjHQxjbO549ZWNbBMN2GorK-ASU6wvGm-8eK2ZBefJ4eCkLeiLAkofHGn0LFH9FEW6fjQyoCwon5bK7vgA0gzPI_2npv-tjEt1f5FlYC7qsr0ID37ctgZwR9L1xJmDAcHr-Q3Lf8PEt4Yjhts23Dv2XbDO55LkKS3G6PnIae9V-MQ4BBT8uZnaxCSM274OhfhgDHJHbG_RFZtfmrlyJgH68V_omMY_yvlBEePDnhzWy0]--></g></svg>

<svg xmlns="http://www.w3.org/2000/svg" width="408" height="1030" viewBox="0 0 408 1030"><rect width="394" height="363.352" x="7" y="660.14" fill="#3D176E" rx="2.5" ry="2.5" style="stroke:#000d19;stroke-width:.5"/><circle cx="39.1" cy="680.034" r="11" fill="#ADD1B2" style="stroke:#181818;stroke-width:1"/><path d="M42.069 685.675q-.578.297-1.219.438-.64.156-1.344.156-2.5 0-3.828-1.64-1.312-1.657-1.312-4.782t1.312-4.781q1.328-1.657 3.828-1.657.703 0 1.344.157.656.156 1.219.453v2.719q-.625-.579-1.219-.844-.594-.281-1.219-.281-1.343 0-2.031 1.078-.687 1.062-.687 3.156t.687 3.172q.688 1.062 2.031 1.062.625 0 1.219-.265.594-.282 1.219-.86z"/><text x="61.9" y="685.92" fill="#D9B8FF" font-family="Helvetica" font-size="17" textLength="314">azure_authorization_role_assignment</text><path d="M8 699.929h392" style="stroke:#000d19;stroke-width:.5"/><text x="18" y="721.924" fill="#D9B8FF" font-family="sans-serif" font-size="14" font-weight="bold" textLength="73">condition</text><text x="91" y="721.924" fill="#D9B8FF" font-family="sans-serif" font-size="14" textLength="48">: string</text><text x="18" y="748.221" fill="#D9B8FF" font-family="sans-serif" font-size="14" font-weight="bold" textLength="139">condition_version</text><text x="157" y="748.221" fill="#D9B8FF" font-family="sans-serif" font-size="14" textLength="48">: string</text><text x="18" y="774.518" fill="#D9B8FF" font-family="sans-serif" font-size="14" font-weight="bold" textLength="87">created_by</text><text x="105" y="774.518" fill="#D9B8FF" font-family="sans-serif" font-size="14" textLength="48">: string</text><text x="18" y="800.815" fill="#D9B8FF" font-family="sans-serif" font-size="14" font-weight="bold" textLength="88">created_on</text><text x="106" y="800.815" fill="#D9B8FF" font-family="sans-serif" font-size="14" textLength="70">: datetime</text><text x="18" y="827.112" fill="#D9B8FF" font-family="sans-serif" font-size="14" font-weight="bold" textLength="324">delegated_managed_identity_resource_id</text><text x="342" y="827.112" fill="#D9B8FF" font-family="sans-serif" font-size="14" textLength="48">: string</text><text x="18" y="853.409" fill="#D9B8FF" font-family="sans-serif" font-size="14" font-weight="bold" textLength="89">description</text><text x="107" y="853.409" fill="#D9B8FF" font-family="sans-serif" font-size="14" textLength="48">: string</text><text x="18" y="879.705" fill="#D9B8FF" font-family="sans-serif" font-size="14" font-weight="bold" textLength="88">principal_id</text><text x="106" y="879.705" fill="#D9B8FF" font-family="sans-serif" font-size="14" textLength="48">: string</text><text x="18" y="906.002" fill="#D9B8FF" font-family="sans-serif" font-size="14" font-weight="bold" textLength="109">principal_type</text><text x="127" y="906.002" fill="#D9B8FF" font-family="sans-serif" font-size="14" textLength="48">: string</text><text x="18" y="932.299" fill="#D9B8FF" font-family="sans-serif" font-size="14" font-weight="bold" textLength="133">role_definition_id</text><text x="151" y="932.299" fill="#D9B8FF" font-family="sans-serif" font-size="14" textLength="48">: string</text><text x="18" y="958.596" fill="#D9B8FF" font-family="sans-serif" font-size="14" font-weight="bold" textLength="48">scope</text><text x="66" y="958.596" fill="#D9B8FF" font-family="sans-serif" font-size="14" textLength="48">: string</text><text x="18" y="984.893" fill="#D9B8FF" font-family="sans-serif" font-size="14" font-weight="bold" textLength="91">updated_by</text><text x="109" y="984.893" fill="#D9B8FF" font-family="sans-serif" font-size="14" textLength="48">: string</text><text x="18" y="1011.19" fill="#D9B8FF" font-family="sans-serif" font-size="14" font-weight="bold" textLength="92">updated_on</text><text x="110" y="1011.19" fill="#D9B8FF" font-family="sans-serif" font-size="14" textLength="70">: datetime</text><rect width="214" height="100.383" x="97" y="438.76" fill="#3D176E" rx="2.5" ry="2.5" style="stroke:#000d19;stroke-width:.5"/><circle cx="118.3" cy="458.654" r="11" fill="#ADD1B2" style="stroke:#181818;stroke-width:1"/><path d="M121.269 464.295q-.578.297-1.219.438-.64.156-1.344.156-2.5 0-3.828-1.64-1.312-1.657-1.312-4.782t1.312-4.781q1.328-1.656 3.828-1.656.703 0 1.344.156.656.156 1.219.453v2.719q-.625-.579-1.219-.844-.594-.281-1.219-.281-1.344 0-2.031 1.078-.687 1.062-.687 3.156t.687 3.172q.688 1.062 2.031 1.062.625 0 1.219-.265.594-.281 1.219-.86z"/><text x="138.7" y="464.54" fill="#D9B8FF" font-family="Helvetica" font-size="17" textLength="158">microsoft_resource</text><path d="M98 478.549h212" style="stroke:#000d19;stroke-width:.5"/><text x="108" y="500.544" fill="#D9B8FF" font-family="sans-serif" font-size="14" font-weight="bold" textLength="35">etag</text><text x="143" y="500.544" fill="#D9B8FF" font-family="sans-serif" font-size="14" textLength="48">: string</text><text x="108" y="526.841" fill="#D9B8FF" font-family="sans-serif" font-size="14" font-weight="bold" textLength="144">provisioning_state</text><text x="252" y="526.841" fill="#D9B8FF" font-family="sans-serif" font-size="14" textLength="48">: string</text><rect width="227" height="310.758" x="90.5" y="7" fill="#3D176E" rx="2.5" ry="2.5" style="stroke:#000d19;stroke-width:.5"/><circle cx="159.25" cy="26.895" r="11" fill="#ADD1B2" style="stroke:#181818;stroke-width:1"/><path d="M162.219 32.535q-.578.297-1.219.438-.64.156-1.344.156-2.5 0-3.828-1.64-1.312-1.657-1.312-4.782t1.312-4.781q1.328-1.656 3.828-1.656.703 0 1.344.156.656.156 1.219.453v2.719q-.625-.578-1.219-.844-.594-.281-1.219-.281-1.344 0-2.031 1.078-.687 1.062-.687 3.156t.687 3.172q.688 1.062 2.031 1.062.625 0 1.219-.265.594-.281 1.219-.86z"/><text x="184.75" y="32.78" fill="#D9B8FF" font-family="Helvetica" font-size="17" textLength="71">resource</text><path d="M91.5 46.789h225" style="stroke:#000d19;stroke-width:.5"/><text x="101.5" y="68.784" fill="#D9B8FF" font-family="sans-serif" font-size="14" font-weight="bold" textLength="29">age</text><text x="130.5" y="68.784" fill="#D9B8FF" font-family="sans-serif" font-size="14" textLength="66">: duration</text><text x="101.5" y="95.081" fill="#D9B8FF" font-family="sans-serif" font-size="14" font-weight="bold" textLength="43">atime</text><text x="144.5" y="95.081" fill="#D9B8FF" font-family="sans-serif" font-size="14" textLength="70">: datetime</text><text x="101.5" y="121.378" fill="#D9B8FF" font-family="sans-serif" font-size="14" font-weight="bold" textLength="43">ctime</text><text x="144.5" y="121.378" fill="#D9B8FF" font-family="sans-serif" font-size="14" textLength="70">: datetime</text><text x="101.5" y="147.675" fill="#D9B8FF" font-family="sans-serif" font-size="14" font-weight="bold" textLength="14">id</text><text x="115.5" y="147.675" fill="#D9B8FF" font-family="sans-serif" font-size="14" textLength="48">: string</text><text x="101.5" y="173.972" fill="#D9B8FF" font-family="sans-serif" font-size="14" font-weight="bold" textLength="33">kind</text><text x="134.5" y="173.972" fill="#D9B8FF" font-family="sans-serif" font-size="14" textLength="48">: string</text><text x="101.5" y="200.269" fill="#D9B8FF" font-family="sans-serif" font-size="14" font-weight="bold" textLength="90">last_access</text><text x="191.5" y="200.269" fill="#D9B8FF" font-family="sans-serif" font-size="14" textLength="66">: duration</text><text x="101.5" y="226.565" fill="#D9B8FF" font-family="sans-serif" font-size="14" font-weight="bold" textLength="90">last_update</text><text x="191.5" y="226.565" fill="#D9B8FF" font-family="sans-serif" font-size="14" textLength="66">: duration</text><text x="101.5" y="252.862" fill="#D9B8FF" font-family="sans-serif" font-size="14" font-weight="bold" textLength="48">mtime</text><text x="149.5" y="252.862" fill="#D9B8FF" font-family="sans-serif" font-size="14" textLength="70">: datetime</text><text x="101.5" y="279.159" fill="#D9B8FF" font-family="sans-serif" font-size="14" font-weight="bold" textLength="43">name</text><text x="144.5" y="279.159" fill="#D9B8FF" font-family="sans-serif" font-size="14" textLength="48">: string</text><text x="101.5" y="305.456" fill="#D9B8FF" font-family="sans-serif" font-size="14" font-weight="bold" textLength="34">tags</text><text x="135.5" y="305.456" fill="#D9B8FF" font-family="sans-serif" font-size="14" textLength="171">: dictionary[string, string]</text><path fill="none" d="M204 557.47v102.2m0-120.2-6 18h12zm0-203.41v102.36m0-120.36-6 18h12z" style="stroke:#ffaf37;stroke-width:2"/></svg>
